build/category/IdeaOutline.svg

<svg xmlns="http://www.w3.org/2000/svg" fill="none" viewBox="0 0 24 24" focusable="false"><path d="M0 0H24V24H0z"/><path fill="#74767B" fill-rule="evenodd" d="M16.0143 14.9752L16.0143 17.9893C16.0143 19.6521 14.6664 21 13.0036 21L10.9965 21C9.33374 21 7.98581 19.6521 7.98581 17.9893L7.98581 14.9752C6.37843 13.7593 5.33984 11.831 5.33984 9.6602C5.33984 5.98187 8.32172 3 12 3C15.6784 3 18.6602 5.98187 18.6602 9.6602C18.6602 11.831 17.6217 13.7593 16.0143 14.9752ZM9.29044 15.2647L14.7096 15.2647L14.7096 17.9893C14.7096 18.9316 13.9458 19.6954 13.0036 19.6954L10.9965 19.6954C10.0543 19.6954 9.29044 18.9316 9.29044 17.9893L9.29044 15.2647ZM8.77288 13.9347L8.80633 13.96L9.9816 13.96L9.9816 10.2457L9.21335 10.2457C8.85309 10.2457 8.56104 9.95364 8.56104 9.59338C8.56104 9.23311 8.85309 8.94106 9.21335 8.94106L14.8313 8.94106C15.1916 8.94106 15.4836 9.23311 15.4836 9.59338C15.4836 9.95364 15.1916 10.2457 14.8313 10.2457L14.063 10.2457L14.063 13.96L15.1938 13.96L15.2272 13.9347C16.5227 12.9548 17.3556 11.405 17.3556 9.6602C17.3556 6.7024 14.9579 4.30463 12 4.30463C9.04224 4.30463 6.64447 6.7024 6.64447 9.6602C6.64447 11.405 7.47743 12.9548 8.77288 13.9347ZM12.7584 13.96L12.7584 10.2457L11.2862 10.2457L11.2862 13.96L12.7584 13.96Z"/></svg>

<svg xmlns="http://www.w3.org/2000/svg" fill="none" viewBox="0 0 24 24" focusable="false"><path fill="#74767B" fill-rule="evenodd" d="M16.01 14.97v3.01c0 1.67-1.35 3.02-3.01 3.02h-2.01c-1.66 0-3.01-1.35-3.01-3.02v-3.01a6.64 6.64 0 0 1-2.65-5.31C5.33 5.98 8.32 3 12 3c3.67 0 6.66 2.98 6.66 6.66 0 2.17-1.04 4.09-2.65 5.31m-6.72.29h5.41v2.72a1.7 1.7 0 0 1-1.7 1.71h-2.01a1.7 1.7 0 0 1-1.7-1.71zm-.52-1.33.03.03h1.18v-3.72h-.77c-.36 0-.65-.29-.65-.65s.29-.65.65-.65h5.62c.36 0 .65.29.65.65s-.29.65-.65.65h-.77v3.72h1.13l.03-.03c1.3-.98 2.13-2.53 2.13-4.27 0-2.96-2.4-5.36-5.35-5.36a5.36 5.36 0 0 0-5.36 5.36c0 1.74.83 3.29 2.13 4.27m3.98.03v-3.72h-1.47v3.72z"/></svg>
